_includes/icons/color-bot.svg

<svg fill="#666" height="50" viewBox="0 0 48 48" width="50" xmlns="http://www.w3.org/2000/svg"><g fill="#512da8"><path d="m23 4h2v11h-2z"/><path d="m42 21c0-1.1.9-2 2-2s2 .9 2 2v14c0 1.1-.9 2-2 2s-2-.9-2-2z"/><path d="m2 21c0-1.1.9-2 2-2s2 .9 2 2v14c0 1.1-.9 2-2 2s-2-.9-2-2z"/></g><g fill="#7e57c2"><path d="m28 6c0 2.2-1.8 4-4 4-.5 0-1-.1-1.4-.2-1.5-.6-1.5-3.8-1.5-3.8l2.9-3.5s1.9-.1 2.6.5c.9.7 1.4 1.8 1.4 3z"/><path d="m43 30.1v9.3c0 3.4-14.7 4.6-18.4 4.6h-1.2c-3.7-0-18.4-1.2-18.4-4.6v-9.3c0-9.4 8.4-17.1 18.4-17.1h1.2c10 0 18.4 7.7 18.4 17.1z"/></g><g fill="#5e35b1"><circle cx="32.5" cy="30.5" r="6.5"/><circle cx="15.5" cy="30.5" r="6.5"/></g><g fill="#fff9c4"><circle cx="15.5" cy="30.5" r="4.5"/><circle cx="32.5" cy="30.5" r="4.5"/></g><g fill="#5c6bc0"><circle cx="15.5" cy="30.5" r="2.5"/><circle cx="32.5" cy="30.5" r="2.5"/></g><g fill="#6e49b9"><path d="m22 7c0 1.2.5 2.2 1.3 2.9-1.9-.3-3.3-1.9-3.3-3.9 0-2.2 1.8-4 4-4 1 0 2 .4 2.7 1.1-.2-.1-.4-.1-.7-.1-2.2 0-4 1.8-4 4z"/><path d="m5 30.1v9.3c0 1 1.2 1.8 3 2.4v-10.1c0-10 7.9-18.2 17.5-18.7-.3 0-.6 0-.9 0h-1.2c-10 0-18.4 7.7-18.4 17.1z"/></g></svg>

<svg xmlns="http://www.w3.org/2000/svg" viewBox="0 0 48 48" width="50" height="50" fill="#666"><g fill="#512da8"><path d="M23 4H25V15H23z"/><path d="M42,21c0-1.1,0.9-2,2-2s2,0.9,2,2v14c0,1.1-0.9,2-2,2s-2-0.9-2-2V21z"/><path d="M2,21c0-1.1,0.9-2,2-2s2,0.9,2,2v14c0,1.1-0.9,2-2,2s-2-0.9-2-2V21z"/></g><g fill="#7e57c2"><path d="M28,6c0,2.2-1.8,4-4,4c-0.5,0-1-0.1-1.4-0.2C21.1,9.2,21.1,6,21.1,6L24,2.5c0,0,1.9-0.1,2.6,0.5 C27.5,3.7,28,4.8,28,6z"/><path d="M43,30.1v9.3c0,3.4-14.7,4.6-18.4,4.6h-1.2C19.7,44,5,42.8,5,39.4v-9.3C5,20.7,13.4,13,23.4,13h1.2 C34.6,13,43,20.7,43,30.1z"/></g><g fill="#5e35b1"><circle cx="32.5" cy="30.5" r="6.5"/><circle cx="15.5" cy="30.5" r="6.5"/></g><g fill="#fff9c4"><circle cx="15.5" cy="30.5" r="4.5"/><circle cx="32.5" cy="30.5" r="4.5"/></g><g fill="#5c6bc0"><circle cx="15.5" cy="30.5" r="2.5"/><circle cx="32.5" cy="30.5" r="2.5"/></g><g fill="#6e49b9"><path d="M22,7c0,1.2,0.5,2.2,1.3,2.9C21.4,9.6,20,8,20,6c0-2.2,1.8-4,4-4c1,0,2,0.4,2.7,1.1 C26.5,3,26.3,3,26,3C23.8,3,22,4.8,22,7z"/><path d="M5,30.1v9.3c0,1,1.2,1.8,3,2.4V31.7c0-10,7.9-18.2,17.5-18.7c-0.3,0-0.6,0-0.9,0h-1.2 C13.4,13,5,20.7,5,30.1z"/></g></svg>
